X:461
T:Nottingham Castle. (p).1701.PLFD.461
M:6/4
L:1/4
Q:3/4=100
S:Playford, Dancing Master,11th Ed.,1701.
O:England
Z:Chris Partington.
K:G
d|(gd)B(dB)G|(FG)AA2B|c>deefg|f>gaf2f|
(gd)B(dB)G|(FG)AA2B|c>dedcB|A2GG2:|
|:d|d>edc2B|c2BA2e|e>=feeAd|d2^cd2a|f>efgfe|
d>cBcBA|F2GA2B|c>dcB2z|A2zG2z|G2FG2:|
